src/images/bg-color/bg-top-tablet.svg

<svg xmlns="http://www.w3.org/2000/svg" fill="none" viewBox="0 0 768 622" preserveAspectRatio="none" x="0" y="0">
<path fill="#FEF3E4" d="M29.9349 591.653c0 13.815-19.0254 30.9-30.9349 30.333V0h768.867v202.724c.3 121.033 0 354.391 0 376.315 0 13.74-20.97 7.954-37.984-14.158-17.013-22.112 14.462-92.699 17.014-113.11 2.552-20.411-5.104-62.934-84.217-114.812-79.114-51.878-194.806-5.953-256.055 24.663-61.249 30.617-113.312-11.906-196.678-37.42-83.367-25.513-113.9913 15.309-125.0502 37.42-11.0588 22.112-10.8876 81.644-34.7067 90.149-23.819 8.504-33.1765 31.467-27.2217 64.634 5.9547 33.168 6.9665 57.388 6.9665 75.248Z"/></svg>

<svg width="768" height="622" viewBox="0 0 768 622" fill="none" xmlns="http://www.w3.org/2000/svg">
<path d="M29.9349 591.653C29.9349 605.468 10.9095 622.553 -1 621.986V0H767.867V202.724C768.167 323.757 767.867 557.115 767.867 579.039C767.867 592.779 746.897 586.993 729.883 564.881C712.87 542.769 744.345 472.182 746.897 451.771C749.449 431.36 741.793 388.837 662.68 336.959C583.566 285.081 467.874 331.006 406.625 361.622C345.376 392.239 293.313 349.716 209.947 324.202C126.58 298.689 95.9557 339.511 84.8968 361.622C73.838 383.734 74.0092 443.266 50.1901 451.771C26.3711 460.275 17.0136 483.238 22.9684 516.405C28.9231 549.573 29.9349 573.793 29.9349 591.653Z" fill="#FEF3E4"/>
</svg>
